public/flags/zet.svg

<svg xmlns="http://www.w3.org/2000/svg" width="800" height="800" fill="none" viewBox="0 -4 28 28"><g clip-path="url(#a)"><path fill="url(#b)" d="M28 0H0v20h28z"/><path fill="url(#c)" d="M28 0H0v20h28z"/><path fill="url(#d)" fill-rule="evenodd" d="M0 12h8v8h4v-8h16V8H12V0H8v8H0z" clip-rule="evenodd"/></g><defs><linearGradient id="b" x1="14" x2="14" y1="0" y2="20" gradientUnits="userSpaceOnUse"><stop stop-color="#fff"/><stop offset="1" stop-color="#f0f0f0"/></linearGradient><linearGradient id="c" x1="14" x2="14" y1="0" y2="20" gradientUnits="userSpaceOnUse"><stop stop-color="#187ae5"/><stop offset="1" stop-color="#0f68c9"/></linearGradient><linearGradient id="d" x1="14" x2="14" y1="0" y2="20" gradientUnits="userSpaceOnUse"><stop stop-color="#fff"/><stop offset="1" stop-color="#f0f0f0"/></linearGradient><clipPath id="a"><rect width="28" height="20" fill="#fff" rx="2"/></clipPath></defs></svg>

<?xml version="1.0" encoding="utf-8"?>
<!-- Uploaded to: SVG Repo, www.svgrepo.com, Generator: SVG Repo Mixer Tools -->
<svg width="800px" height="800px" viewBox="0 -4 28 28" fill="none" xmlns="http://www.w3.org/2000/svg">
<g clip-path="url(#clip0_1310_7625)">
<path d="M28 0H0V20H28V0Z" fill="url(#paint0_linear_1310_7625)"/>
<path d="M28 0H0V20H28V0Z" fill="url(#paint1_linear_1310_7625)"/>
<path fill-rule="evenodd" clip-rule="evenodd" d="M0 12H8V20H12V12H28V8H12V0H8V8H0V12Z" fill="url(#paint2_linear_1310_7625)"/>
</g>
<defs>
<linearGradient id="paint0_linear_1310_7625" x1="14" y1="0" x2="14" y2="20" gradientUnits="userSpaceOnUse">
<stop stop-color="white"/>
<stop offset="1" stop-color="#F0F0F0"/>
</linearGradient>
<linearGradient id="paint1_linear_1310_7625" x1="14" y1="0" x2="14" y2="20" gradientUnits="userSpaceOnUse">
<stop stop-color="#187AE5"/>
<stop offset="1" stop-color="#0F68C9"/>
</linearGradient>
<linearGradient id="paint2_linear_1310_7625" x1="14" y1="0" x2="14" y2="20" gradientUnits="userSpaceOnUse">
<stop stop-color="white"/>
<stop offset="1" stop-color="#F0F0F0"/>
</linearGradient>
<clipPath id="clip0_1310_7625">
<rect width="28" height="20" rx="2" fill="white"/>
</clipPath>
</defs>
</svg>
